img/fa/globe-regular-white.svg

<svg viewBox="0 0 496 512" xmlns="http://www.w3.org/2000/svg"><path d="m248 8c-137 0-248 111-248 248s111 248 248 248 248-111 248-248-111-248-248-248zm179.3 160h-67.2c-6.7-36.5-17.5-68.8-31.2-94.7 42.9 19 77.7 52.7 98.4 94.7zm-179.3-112c18.6 0 48.6 41.2 63.2 112h-126.4c14.6-70.8 44.6-112 63.2-112zm-200 200c0-13.7 1.4-27.1 4-40h77.7c-1 13.1-1.7 26.3-1.7 40s.7 26.9 1.7 40h-77.7c-2.6-12.9-4-26.3-4-40zm20.7 88h67.2c6.7 36.5 17.5 68.8 31.2 94.7-42.9-19-77.7-52.7-98.4-94.7zm67.2-176h-67.2c20.7-42 55.5-75.7 98.4-94.7-13.7 25.9-24.5 58.2-31.2 94.7zm112.1 288c-18.6 0-48.6-41.2-63.2-112h126.5c-14.7 70.8-44.7 112-63.3 112zm70.1-160h-140.2c-1.1-12.8-1.9-26-1.9-40s.8-27.2 1.9-40h140.3c1.1 12.8 1.9 26 1.9 40s-.9 27.2-2 40zm10.8 142.7c13.7-25.9 24.4-58.2 31.2-94.7h67.2c-20.7 42-55.5 75.7-98.4 94.7zm37.4-142.7c1-13.1 1.7-26.3 1.7-40s-.7-26.9-1.7-40h77.7c2.6 12.9 4 26.3 4 40s-1.4 27.1-4 40z" fill="#fff"/></svg>

<?xml version="1.0" encoding="UTF-8" standalone="no"?>
<svg
   xmlns:dc="http://purl.org/dc/elements/1.1/"
   xmlns:cc="http://creativecommons.org/ns#"
   xmlns:rdf="http://www.w3.org/1999/02/22-rdf-syntax-ns#"
   xmlns:svg="http://www.w3.org/2000/svg"
   xmlns="http://www.w3.org/2000/svg"
   xmlns:sodipodi="http://sodipodi.sourceforge.net/DTD/sodipodi-0.dtd"
   xmlns:inkscape="http://www.inkscape.org/namespaces/inkscape"
   aria-hidden="true"
   data-prefix="far"
   data-icon="globe"
   role="img"
   viewBox="0 0 496 512"
   class="svg-inline--fa fa-globe fa-w-16 fa-7x"
   version="1.1"
   id="svg856"
   sodipodi:docname="globe-regular-white.svg"
   inkscape:version="0.92.4 (5da689c313, 2019-01-14)">
  <metadata
     id="metadata862">
    <rdf:RDF>
      <cc:Work
         rdf:about="">
        <dc:format>image/svg+xml</dc:format>
        <dc:type
           rdf:resource="http://purl.org/dc/dcmitype/StillImage" />
        <dc:title></dc:title>
      </cc:Work>
    </rdf:RDF>
  </metadata>
  <defs
     id="defs860" />
  <sodipodi:namedview
     pagecolor="#ffffff"
     bordercolor="#666666"
     borderopacity="1"
     objecttolerance="10"
     gridtolerance="10"
     guidetolerance="10"
     inkscape:pageopacity="0"
     inkscape:pageshadow="2"
     inkscape:window-width="1850"
     inkscape:window-height="1016"
     id="namedview858"
     showgrid="false"
     inkscape:zoom="1.6328125"
     inkscape:cx="248"
     inkscape:cy="256"
     inkscape:window-x="70"
     inkscape:window-y="27"
     inkscape:window-maximized="1"
     inkscape:current-layer="svg856" />
  <path
     fill="currentColor"
     d="M248 8C111 8 0 119 0 256s111 248 248 248 248-111 248-248S385 8 248 8zm179.3 160h-67.2c-6.7-36.5-17.5-68.8-31.2-94.7 42.9 19 77.7 52.7 98.4 94.7zM248 56c18.6 0 48.6 41.2 63.2 112H184.8C199.4 97.2 229.4 56 248 56zM48 256c0-13.7 1.4-27.1 4-40h77.7c-1 13.1-1.7 26.3-1.7 40s.7 26.9 1.7 40H52c-2.6-12.9-4-26.3-4-40zm20.7 88h67.2c6.7 36.5 17.5 68.8 31.2 94.7-42.9-19-77.7-52.7-98.4-94.7zm67.2-176H68.7c20.7-42 55.5-75.7 98.4-94.7-13.7 25.9-24.5 58.2-31.2 94.7zM248 456c-18.6 0-48.6-41.2-63.2-112h126.5c-14.7 70.8-44.7 112-63.3 112zm70.1-160H177.9c-1.1-12.8-1.9-26-1.9-40s.8-27.2 1.9-40h140.3c1.1 12.8 1.9 26 1.9 40s-.9 27.2-2 40zm10.8 142.7c13.7-25.9 24.4-58.2 31.2-94.7h67.2c-20.7 42-55.5 75.7-98.4 94.7zM366.3 296c1-13.1 1.7-26.3 1.7-40s-.7-26.9-1.7-40H444c2.6 12.9 4 26.3 4 40s-1.4 27.1-4 40h-77.7z"
     class=""
     id="path854"
     style="fill:#ffffff;fill-opacity:1" />
</svg>
